X: 1
T: True Philosophy    [Gm]
C: 1700's
R: waltz
Z: 2017 John Chambers <jc:trillian.mit.edu>
S: https://www.youtube.com/watch?v=JdErG6nh-WU (includes image of dance page)
N: The tune title was made up by Fried de Metz Herman.
N: Suggested tune for the dance "Ode to the Pianist", by Fried de Metz Herman in honor of Leah Barkan, pianist.
M: 3/4
L: 1/8
K: Gm
d2 |\
"Gm"g^f g2 d2 | "Cm"e2 d2 c2 | "Gm"(3(BcB) "D7"A2 d2 | "Gm"BA G2 "F"f2 |\
"Bb"(3(bag) f2 "Eb"g2 | g2 "Bb"f2 "Cm"e2 | "Bb"(3(def) b2 "F"a2 | "Bb"b4 :|
|: f2 |\
"Bb"fe d2 "Eb"g2 | (3(gfe) "Bb"d2 b2 | "Gm"b2 "D"a2 "Gm"g2 | g^f "D"d2 d2 |\
"Cm"ed c2 "G"=B2 | "Cm"(3(cde) "G"=Bd "Cm"c2 | "Gm"d2 g2 "D7"^f2 | "Gm"g4 :|
